X: 30809
T: Otter's Holt, The
R: reel
M: 4/4
K: Bminor
E'|F'BBA FEFB|ABFB ABD'E'|F'BBA FEFA|BD'=C'A BD'C'E'|
F'BBA FEFB|BAFB ABD'E'|F'2A'F' E'G'F'E'|D'BAF B3||
C'|D'2 F'D' AD'F'A'|B'F'A'F' E'G'F'E'|D'2F'D' AD'F'A'|B'F'A'F' E'2 F'E'|
D'2F'D' AD'F'A'|B'F'A'F' E'F'D'E'|F'BBA FEFA|BD'C'E B3||

